X:76
T:Hag With the Money, The    
B:CRE1.041 (Cailleach an Airgid)
F:file ID: cre.1/076hag_m
S:Pat Brophy
M:6/8
Q:160
R:jig
K:D
Ad=c ABG|AGE G3|Ad=c ABA|GEA GED|
Ad=c ABG|AGE G2A|AGE =cde|d=cA GED:|
|:ABc dcd|fed e3|ABc dcd|eag edc|
ABc dcd|fed efg|age cde|dcA GED:|

%%%

